v/0.4.11/design-resources/icons/wf_icons/comment-checkmark.svg

<?xml version="1.0" encoding="utf-8"?>
<!-- Generated by IcoMoon.io -->
<!DOCTYPE svg PUBLIC "-//W3C//DTD SVG 1.1//EN" "http://www.w3.org/Graphics/SVG/1.1/DTD/svg11.dtd">
<svg version="1.1" xmlns="http://www.w3.org/2000/svg" xmlns:xlink="http://www.w3.org/1999/xlink" width="512" height="512" viewBox="0 0 512 512">
<g>
</g>
	<path d="M448 32h-384c-35.346 0-64 28.653-64 64v224c0 35.346 28.654 64 64 64h32l160 128v-128h192c35.346 0 64-28.654 64-64v-224c0-35.347-28.654-64-64-64zM480 320c0 17.644-14.356 32-32 32h-224v96l-112-96h-48c-17.645 0-32-14.356-32-32v-224c0-17.644 14.355-32 32-32h384c17.644 0 32 14.356 32 32v224z" fill="#595959" />
	<path d="M384 158.222l-46.545-46.222-116.35 115.541-62.523-62.17-46.582 46.185 109.092 108.443z" fill="#595959" />
</svg>

<svg xmlns="http://www.w3.org/2000/svg" width="512" height="512" viewBox="0 0 512 512"><path d="M448 32H64C28.8 32 0 60.8 0 96v224c0 35.2 28.8 64 64 64h32l160 128V384h192c35.2 0 64-28.8 64-64V96c0-35.2-28.8-64-64-64zm32 288c0 19.2-12.8 32-32 32H224v96l-112-96H64c-19.2 0-32-12.8-32-32V96c0-19.2 12.8-32 32-32h384c19.2 0 32 12.8 32 32v224zM406.4 137.6l-44.8-44.8L224 230.4l-67.2-67.2L112 208l112 112z" fill="#595959"/></svg>
